icons/Weather/flood-fill.svg

<svg viewBox="0 0 24 24" xmlns="http://www.w3.org/2000/svg"><path d="M16.0001 17.4724C17.0616 18.4224 18.4634 19.0001 20 19.0001H22V21.0001H20C18.5428 21.0001 17.1766 20.6105 15.9998 19.9298C14.8242 20.6103 13.4576 21.0001 12 21.0001C10.5428 21.0001 9.17657 20.6105 7.99984 19.9298C6.8242 20.6103 5.45763 21.0001 4 21.0001H2V19.0001H4C5.53713 19.0001 6.93925 18.4221 8.00013 17.4724C9.06163 18.4224 10.4634 19.0001 12 19.0001C13.5371 19.0001 14.9393 18.4221 16.0001 17.4724ZM12.5734 1.53216L12.6727 1.61162L23 11.0001H20V17.0001C18.3643 17.0001 16.912 16.2146 15.9998 15.0003C15.088 16.2146 13.6357 17.0001 12 17.0001C10.3643 17.0001 8.91199 16.2146 7.99978 15.0003C7.08801 16.2146 5.63573 17.0001 4 17.0001L3.999 10.9996L1 11.0001L11.3273 1.61162C11.6452 1.32267 12.1027 1.27451 12.4671 1.46714L12.5734 1.53216Z"/></svg>

<svg xmlns="http://www.w3.org/2000/svg" viewBox="0 0 24 24">
    <g>
        <path fill="none" d="M0 0h24v24H0z"/>
        <path d="M16 17.472A5.978 5.978 0 0 0 20 19h2v2h-2a7.963 7.963 0 0 1-4-1.07A7.96 7.96 0 0 1 12 21a7.963 7.963 0 0 1-4-1.07A7.96 7.96 0 0 1 4 21H2v-2h2c1.537 0 2.94-.578 4-1.528A5.978 5.978 0 0 0 12 19c1.537 0 2.94-.578 4-1.528zm-3.427-15.94l.1.08L23 11h-3v6a4.992 4.992 0 0 1-4-2 4.99 4.99 0 0 1-4 2 4.992 4.992 0 0 1-4-2 4.99 4.99 0 0 1-4 2l-.001-6H1l10.327-9.388a1 1 0 0 1 1.14-.145l.106.065z"/>
    </g>
</svg>
